Newaita/actions/symbolic/find-location-symbolic.svg

<svg height="16" viewBox="0 0 16 16" width="16" xmlns="http://www.w3.org/2000/svg"><path d="m7.277344.785156c-.183594 0-.332032.148438-.332032.332032v1.074218c-2.5.414063-4.464843 2.378906-4.878906 4.878906h-1.074218c-.183594 0-.332032.148438-.332032.332032v1.324218c0 .179688.148438.328126.332032.328126h1.074218c.414063 2.5 2.378906 4.464843 4.878906 4.878906v1.074218c0 .183594.148438.332032.332032.332032h1.324218c.179688 0 .328126-.148438.328126-.332032v-1.074218c2.5-.414063 4.464843-2.378906 4.878906-4.878906h1.074218c.183594 0 .332032-.148438.332032-.328126v-1.324218c0-.183594-.148438-.332032-.332032-.332032h-1.074218c-.414063-2.5-2.378906-4.464843-4.878906-4.878906v-1.074218c0-.183594-.148438-.332032-.328126-.332032zm-.332032 3.433594v1.199219c0 .183593.148438.328125.332032.328125h1.324218c.179688 0 .328126-.144532.328126-.328125v-1.199219c1.398437.355469 2.496093 1.453125 2.855468 2.851562h-1.199218c-.183594 0-.332032.148438-.332032.332032v1.324218c0 .179688.148438.328126.332032.328126h1.199218c-.359375 1.398437-1.457031 2.496093-2.855468 2.855468v-1.199218c0-.183594-.148438-.332032-.328126-.332032h-1.324218c-.183594 0-.332032.148438-.332032.332032v1.199218c-1.398437-.359375-2.496093-1.457031-2.851562-2.855468h1.199219c.183593 0 .328125-.148438.328125-.328126v-1.324218c0-.183594-.144532-.332032-.328125-.332032h-1.199219c.355469-1.398437 1.453125-2.496093 2.851562-2.851562zm0 0" fill="#424242"/></svg>

<?xml version="1.0" encoding="UTF-8"?>
<svg xmlns="http://www.w3.org/2000/svg" xmlns:xlink="http://www.w3.org/1999/xlink" width="16px" height="16px" viewBox="0 0 16 16" version="1.1">
<g id="surface1">
<path style=" stroke:none;fill-rule:nonzero;fill:rgb(25.882354%,25.882354%,25.882354%);fill-opacity:1;" d="M 7.277344 0.785156 C 7.09375 0.785156 6.945312 0.933594 6.945312 1.117188 L 6.945312 2.191406 C 4.445312 2.605469 2.480469 4.570312 2.066406 7.070312 L 0.992188 7.070312 C 0.808594 7.070312 0.660156 7.21875 0.660156 7.402344 L 0.660156 8.726562 C 0.660156 8.90625 0.808594 9.054688 0.992188 9.054688 L 2.066406 9.054688 C 2.480469 11.554688 4.445312 13.519531 6.945312 13.933594 L 6.945312 15.007812 C 6.945312 15.191406 7.09375 15.339844 7.277344 15.339844 L 8.601562 15.339844 C 8.78125 15.339844 8.929688 15.191406 8.929688 15.007812 L 8.929688 13.933594 C 11.429688 13.519531 13.394531 11.554688 13.808594 9.054688 L 14.882812 9.054688 C 15.066406 9.054688 15.214844 8.90625 15.214844 8.726562 L 15.214844 7.402344 C 15.214844 7.21875 15.066406 7.070312 14.882812 7.070312 L 13.808594 7.070312 C 13.394531 4.570312 11.429688 2.605469 8.929688 2.191406 L 8.929688 1.117188 C 8.929688 0.933594 8.78125 0.785156 8.601562 0.785156 Z M 6.945312 4.21875 L 6.945312 5.417969 C 6.945312 5.601562 7.09375 5.746094 7.277344 5.746094 L 8.601562 5.746094 C 8.78125 5.746094 8.929688 5.601562 8.929688 5.417969 L 8.929688 4.21875 C 10.328125 4.574219 11.425781 5.671875 11.785156 7.070312 L 10.585938 7.070312 C 10.402344 7.070312 10.253906 7.21875 10.253906 7.402344 L 10.253906 8.726562 C 10.253906 8.90625 10.402344 9.054688 10.585938 9.054688 L 11.785156 9.054688 C 11.425781 10.453125 10.328125 11.550781 8.929688 11.910156 L 8.929688 10.710938 C 8.929688 10.527344 8.78125 10.378906 8.601562 10.378906 L 7.277344 10.378906 C 7.09375 10.378906 6.945312 10.527344 6.945312 10.710938 L 6.945312 11.910156 C 5.546875 11.550781 4.449219 10.453125 4.09375 9.054688 L 5.292969 9.054688 C 5.476562 9.054688 5.621094 8.90625 5.621094 8.726562 L 5.621094 7.402344 C 5.621094 7.21875 5.476562 7.070312 5.292969 7.070312 L 4.09375 7.070312 C 4.449219 5.671875 5.546875 4.574219 6.945312 4.21875 Z M 6.945312 4.21875 "/>
</g>
</svg>
